X: 9
T:La gigo (2)
R:---
O:Val Varaita, Italie
M:2/4
L:1/8
K:G
BB|:BB/2B/2 AG|A2 cc|cc/2c/2 BA|BG BB|Bc/2B/2 AG|A2 cc|cc/2c/2 BA| [1 G2 BB:| [2 G2
GB|:d2 cB|c2 AF|A>c BA/2B/2|AG GB|d2 cB|c2 AF|A>c BA| [1 G2 GB:| [2 G2
GB|:dd/2d/2 cB|cA FA|Ad/2c/2 BA|BG GB|de/2d/2 cB|cA FA|Ad/2c/2 BA| [1 G2 GB:| [2 G2
GB|:d2 cB|c2 AF|A>c BA/2B/2|AG GB|d2 cB|c2 AF|A>c BA| [1 G2 GB:| [2 G2

%%footer $D   Galouvielle-MBe 2006 \n--- (Val Varaita, Italie)
